Improvs/dist/images/date_template/arrow_right.svg

<svg width="85" height="35" viewBox="0 0 85 35" fill="none" xmlns="http://www.w3.org/2000/svg">
<g id="Vector" opacity="0.8">
<path d="M0.113809 33.5085C3.73533 25.729 11.6595 19.201 21.1976 14.5719C35.4496 7.65721 53.293 4.97509 65.5927 8.56754C65.8452 8.6447 65.9908 8.91153 65.9175 9.16154C65.8428 9.41789 65.5799 9.56097 65.3235 9.48632C53.2141 5.9511 35.6485 8.62284 21.6152 15.4358C12.2925 19.9581 4.52042 26.3071 0.983693 33.9134C0.87228 34.1552 0.588193 34.2573 0.346328 34.1459C0.110815 34.0358 0.00239627 33.7504 0.113809 33.5085ZM77.1243 7.70024L77.1241 7.7002C71.3258 6.43251 65.9352 5.25394 60.5789 1.49686C60.3631 1.3412 60.3071 1.04367 60.4627 0.827861C60.612 0.610689 60.9121 0.558543 61.1254 0.710347C66.3902 4.40195 71.6935 5.55073 77.3903 6.78474C79.4003 7.22013 81.4593 7.66615 83.5829 8.2382C84.0221 8.35854 84.019 8.6999 84.0115 8.78133C84.0023 8.90222 83.949 9.09005 83.7082 9.19139C83.6608 9.21115 83.5623 9.23662 83.4194 9.2526C83.2873 9.26438 83.0884 9.27117 82.8897 9.27795L82.8896 9.27796C82.6759 9.28525 82.4624 9.29254 82.3322 9.30603C81.97 9.34654 81.6094 9.39153 81.2488 9.43651L81.2484 9.43656C80.8876 9.48158 80.5268 9.52659 80.1645 9.56712C78.0927 9.79887 76.0296 10.0524 73.9874 10.4565L73.7864 10.4959C66.2354 11.9772 60.0459 13.1915 55.4333 19.7178C55.2802 19.9375 54.9839 19.9872 54.7643 19.834C54.5509 19.6822 54.4988 19.3822 54.6506 19.1688C59.4624 12.3561 65.9006 11.0676 73.8035 9.51401C75.8724 9.10898 77.9636 8.84819 80.0558 8.61416C80.3056 8.58826 80.553 8.55853 80.8004 8.52881L80.8005 8.5288L80.8006 8.52879L80.8047 8.52829C79.558 8.23233 78.3324 7.96437 77.1244 7.70028L77.1243 7.70024Z" fill="white"/>
<path d="M0.113809 33.5085C3.73533 25.729 11.6595 19.201 21.1976 14.5719C35.4496 7.65721 53.293 4.97509 65.5927 8.56754C65.8452 8.6447 65.9908 8.91153 65.9175 9.16154C65.8428 9.41789 65.5799 9.56097 65.3235 9.48632C53.2141 5.9511 35.6485 8.62284 21.6152 15.4358C12.2925 19.9581 4.52042 26.3071 0.983693 33.9134C0.87228 34.1552 0.588193 34.2573 0.346328 34.1459C0.110815 34.0358 0.00239627 33.7504 0.113809 33.5085ZM77.1243 7.70024L77.1241 7.7002C71.3258 6.43251 65.9352 5.25394 60.5789 1.49686C60.3631 1.3412 60.3071 1.04367 60.4627 0.827861C60.612 0.610689 60.9121 0.558543 61.1254 0.710347C66.3902 4.40195 71.6935 5.55073 77.3903 6.78474C79.4003 7.22013 81.4593 7.66615 83.5829 8.2382C84.0221 8.35854 84.019 8.6999 84.0115 8.78133C84.0023 8.90222 83.949 9.09005 83.7082 9.19139C83.6608 9.21115 83.5623 9.23662 83.4194 9.2526C83.2873 9.26438 83.0884 9.27117 82.8897 9.27795L82.8896 9.27796C82.6759 9.28525 82.4624 9.29254 82.3322 9.30603C81.97 9.34654 81.6094 9.39153 81.2488 9.43651L81.2484 9.43656C80.8876 9.48158 80.5268 9.52659 80.1645 9.56712C78.0927 9.79887 76.0296 10.0524 73.9874 10.4565L73.7864 10.4959C66.2354 11.9772 60.0459 13.1915 55.4333 19.7178C55.2802 19.9375 54.9839 19.9872 54.7643 19.834C54.5509 19.6822 54.4988 19.3822 54.6506 19.1688C59.4624 12.3561 65.9006 11.0676 73.8035 9.51401C75.8724 9.10898 77.9636 8.84819 80.0558 8.61416C80.3056 8.58826 80.553 8.55853 80.8004 8.52881L80.8005 8.5288L80.8006 8.52879L80.8047 8.52829C79.558 8.23233 78.3324 7.96437 77.1244 7.70028L77.1243 7.70024Z" stroke="white"/>
</g>
</svg>

<svg width="85" height="35" fill="none" xmlns="http://www.w3.org/2000/svg"><g id="Vector" opacity=".8"><path d="M.114 33.508C3.735 25.73 11.66 19.201 21.198 14.572 35.45 7.657 53.293 4.975 65.593 8.568a.483.483 0 01.325.594.475.475 0 01-.595.324c-12.109-3.535-29.674-.863-43.708 5.95C12.293 19.958 4.52 26.307.984 33.913a.478.478 0 01-.638.233.483.483 0 01-.232-.638zM77.124 7.7C71.326 6.433 65.935 5.254 60.58 1.497a.479.479 0 01.546-.787C66.39 4.402 71.694 5.55 77.39 6.785c2.01.435 4.07.881 6.193 1.453.44.12.436.462.428.543a.464.464 0 01-.303.41c-.047.02-.146.046-.289.062-.132.011-.33.018-.53.025a9.869 9.869 0 00-.557.028c-.362.04-.723.086-1.083.13-.361.046-.722.09-1.084.131-2.072.232-4.135.485-6.178.89l-.2.039c-7.552 1.481-13.741 2.695-18.354 9.222a.477.477 0 01-.669.116.48.48 0 01-.113-.665c4.811-6.813 11.25-8.101 19.152-9.655 2.07-.405 4.16-.666 6.253-.9.25-.026.497-.055.744-.085h.005a209.89 209.89 0 00-3.68-.829z" fill="#fff"/><path d="M.114 33.508C3.735 25.73 11.66 19.201 21.198 14.572 35.45 7.657 53.293 4.975 65.593 8.568a.483.483 0 01.325.594.475.475 0 01-.595.324c-12.109-3.535-29.674-.863-43.708 5.95C12.293 19.958 4.52 26.307.984 33.913a.478.478 0 01-.638.233.483.483 0 01-.232-.638zM77.124 7.7h0C71.326 6.433 65.935 5.254 60.58 1.497a.479.479 0 01.546-.787C66.39 4.402 71.694 5.55 77.39 6.785c2.01.435 4.07.881 6.193 1.453.44.12.436.462.428.543a.464.464 0 01-.303.41c-.047.02-.146.046-.289.062-.132.011-.33.018-.53.025h0a9.869 9.869 0 00-.557.028c-.362.04-.723.086-1.083.13h0c-.361.046-.722.09-1.084.131-2.072.232-4.135.485-6.178.89l-.2.039c-7.552 1.481-13.741 2.695-18.354 9.222a.477.477 0 01-.669.116.48.48 0 01-.113-.665c4.811-6.813 11.25-8.101 19.152-9.655 2.07-.405 4.16-.666 6.253-.9.25-.026.497-.055.744-.085h.005a209.89 209.89 0 00-3.68-.829h0z" stroke="#fff"/></g></svg>
